app/assets/images/icons/active/report-flag.svg

<?xml version="1.0" encoding="UTF-8" standalone="no"?>
<svg width="32px" height="232px" viewBox="0 0 32 232" version="1.1" xmlns="http://www.w3.org/2000/svg" xmlns:xlink="http://www.w3.org/1999/xlink" xmlns:sketch="http://www.bohemiancoding.com/sketch/ns">
    <title>report-flag</title>
    <description>Created with Sketch (http://www.bohemiancoding.com/sketch)</description>
    <defs></defs>
    <g id="Actions" stroke="none" stroke-width="1" fill="none" fill-rule="evenodd" sketch:type="MSPage">
        <path d="M28.2578739,128.675588 C11.7791125,135.390588 18.4543025,117.316588 5.67262978,126.832588 L3,127.806588 L8.29516618,148.999588 L11.2113874,148.999588 L8.61733544,138.618588 C20.0199665,128.888588 15.4035167,149.224588 28.8923902,129.271588 C29.2057195,128.806588 28.7863101,128.458588 28.2578739,128.675588" id="report-flag--lp-blue" fill="#206FAC" sketch:type="MSShapeGroup"></path>
        <path d="M28.2578739,88.6755878 C11.7791125,95.3905878 18.4543025,77.3165878 5.67262978,86.8325878 L3,87.8065878 L8.29516618,108.999588 L11.2113874,108.999588 L8.61733544,98.6185878 C20.0199665,88.8885878 15.4035167,109.224588 28.8923902,89.2715878 C29.2057195,88.8065878 28.7863101,88.4585878 28.2578739,88.6755878" id="report-flag--white" fill="#FFFFFF" sketch:type="MSShapeGroup"></path>
        <path d="M28.2578739,48.6755878 C11.7791125,55.3905878 18.4543025,37.3165878 5.67262978,46.8325878 L3,47.8065878 L8.29516618,68.9995878 L11.2113874,68.9995878 L8.61733544,58.6185878 C20.0199665,48.8885878 15.4035167,69.2245878 28.8923902,49.2715878 C29.2057195,48.8065878 28.7863101,48.4585878 28.2578739,48.6755878" id="report-flag--body-grey" fill="#67737B" sketch:type="MSShapeGroup"></path>
        <path d="M28.2578739,8.67558776 C11.7791125,15.3905878 18.4543025,-2.68341224 5.67262978,6.83258776 L3,7.80658776 L8.29516618,28.9995878 L11.2113874,28.9995878 L8.61733544,18.6185878 C20.0199665,8.88858776 15.4035167,29.2245878 28.8923902,9.27158776 C29.2057195,8.80658776 28.7863101,8.45858776 28.2578739,8.67558776" id="report-flag--title-grey" fill="#3A434E" sketch:type="MSShapeGroup"></path>
    </g>
</svg>

<svg width="32" height="232" viewBox="0 0 32 232" xmlns="http://www.w3.org/2000/svg" xmlns:sketch="http://www.bohemiancoding.com/sketch/ns"><title>report-flag</title><g sketch:type="MSPage" fill="none"><path d="M28.258 128.676c-16.479 6.715-9.804-11.359-22.585-1.843l-2.673.974 5.295 21.193h2.916l-2.594-10.381c11.403-9.73 6.786 10.606 20.275-9.347.313-.465-.106-.813-.635-.596" fill="#206FAC" sketch:type="MSShapeGroup"/><path d="M28.258 88.676c-16.479 6.715-9.804-11.359-22.585-1.843l-2.673.974 5.295 21.193h2.916l-2.594-10.381c11.403-9.73 6.786 10.606 20.275-9.347.313-.465-.106-.813-.635-.596" fill="#fff" sketch:type="MSShapeGroup"/><path d="M28.258 48.676c-16.479 6.715-9.804-11.359-22.585-1.843l-2.673.974 5.295 21.193h2.916l-2.594-10.381c11.403-9.73 6.786 10.606 20.275-9.347.313-.465-.106-.813-.635-.596" fill="#67737B" sketch:type="MSShapeGroup"/><path d="M28.258 8.676c-16.479 6.715-9.804-11.359-22.585-1.843l-2.673.974 5.295 21.193h2.916l-2.594-10.381c11.403-9.73 6.786 10.606 20.275-9.347.313-.465-.106-.813-.635-.596" fill="#3A434E" sketch:type="MSShapeGroup"/></g></svg>
